X: 10
T: Put Me In The Big Chest
R: reel
M: 4/4
L: 1/8
K: Amaj
EFAB c2 cf|ecBA F/F/F (AF)|EFAB c2 cf|ecBc A3F|
EFAB c2 cf|ecBA F/F/F (AF)|EFAB c2 cf|ecBc A3c||
efec eAAc|efec B/B/B cd|efec efaf|ecBc A/A/A cd|
efec eAAc|efec B/B/B cd|efec efaf|ecBc A2 AF||

